usr/share/icons/biglinux-icons-material-dark/16/actions/transform-shear-left.svg

<svg xmlns="http://www.w3.org/2000/svg" viewBox="0 0 16 16">
<defs id="defs3051">
<style id="current-color-scheme" type="text/css">
.ColorScheme-Text{color:#dedede}
</style>
</defs>
<path d="M2 2v8h2V9H3V3h7v2h1V2zm2 4 2 8h8l-2-8zm1.5 1H11l1.5 6H7z" class="ColorScheme-Text" style="fill:currentColor;fill-opacity:1;stroke:none"/>
</svg>

<svg xmlns="http://www.w3.org/2000/svg" viewBox="0 0 16 16">
  <defs id="defs3051">
    <style type="text/css" id="current-color-scheme">
      .ColorScheme-Text {
        color:#dedede;
      }
      </style>
  </defs>
 <path style="fill:currentColor;fill-opacity:1;stroke:none" 
       d="M 2 2 L 2 10 L 4 10 L 4 9 L 3 9 L 3 3 L 10 3 L 10 5 L 11 5 L 11 2 L 2 2 z M 4 6 L 6 14 L 14 14 L 12 6 L 4 6 z M 5.5 7 L 11 7 L 12.5 13 L 7 13 L 5.5 7 z "
     class="ColorScheme-Text"
     />
</svg>
